components/Common/Svg/svgs/wireframes.svg

<svg
  width="90"
  height="90"
  viewBox="0 0 90 90"
  fill="none"
  xmlns="http://www.w3.org/2000/svg"
>
  <circle
    opacity="0.5"
    cx="45"
    cy="45"
    r="45"
    fill="#FFE603"
  ></circle>
  <path
    d="M20.2539 27.2496C20.2539 26.1319 21.16 25.2258 22.2777 25.2258H67.4129C68.5306 25.2258 69.4367 26.1319 69.4367 27.2496V32.1291H20.2539V27.2496Z"
    fill="#FFF281"
  ></path>
  <path
    d="M20.2539 27.2496C20.2539 26.1319 21.16 25.2258 22.2777 25.2258H67.4129C68.5306 25.2258 69.4367 26.1319 69.4367 27.2496V32.1291H20.2539V27.2496Z"
    stroke="#161616"
    stroke-width="2"
  ></path>
  <path
    d="M20.2539 31.0129H69.4367V61.8601C69.4367 62.9778 68.5306 63.8839 67.4129 63.8839H22.2777C21.16 63.8839 20.2539 62.9778 20.2539 61.8601V31.0129Z"
    fill="#FFF281"
  ></path>
  <path
    fill-rule="evenodd"
    clip-rule="evenodd"
    d="M25.6023 35.9485H64.0843C64.266 35.9485 64.4132 36.0397 64.4132 36.1522V46.1319C64.4132 46.2443 64.266 46.3356 64.0843 46.3356H25.6023C25.4207 46.3356 25.2734 46.2443 25.2734 46.1319V36.1522C25.2734 36.0397 25.4207 35.9485 25.6023 35.9485V35.9485Z"
    stroke="#161616"
    stroke-width="2"
    stroke-linecap="round"
    stroke-linejoin="round"
  ></path>
  <path
    fill-rule="evenodd"
    clip-rule="evenodd"
    d="M25.5612 50.7871H34.7706C34.9295 50.7871 35.0584 50.9461 35.0584 51.1419V58.5936C35.0584 58.7894 34.9295 58.9484 34.7706 58.9484H25.5612C25.4023 58.9484 25.2734 58.7894 25.2734 58.5936V51.1419C25.2734 50.9461 25.4023 50.7871 25.5612 50.7871V50.7871Z"
    stroke="#161616"
    stroke-width="2"
    stroke-linecap="round"
    stroke-linejoin="round"
  ></path>
  <path
    fill-rule="evenodd"
    clip-rule="evenodd"
    d="M39.8841 50.7871H49.8019C49.9731 50.7871 50.1119 50.9461 50.1119 51.1419V58.5936C50.1119 58.7894 49.9731 58.9484 49.8019 58.9484H39.8841C39.713 58.9484 39.5742 58.7894 39.5742 58.5936V51.1419C39.5742 50.9461 39.713 50.7871 39.8841 50.7871V50.7871Z"
    stroke="#161616"
    stroke-width="2"
    stroke-linecap="round"
    stroke-linejoin="round"
  ></path>
  <path
    fill-rule="evenodd"
    clip-rule="evenodd"
    d="M54.9167 50.7871H64.1261C64.285 50.7871 64.4138 50.9461 64.4138 51.1419V58.5936C64.4138 58.7894 64.285 58.9484 64.1261 58.9484H54.9167C54.7578 58.9484 54.6289 58.7894 54.6289 58.5936V51.1419C54.6289 50.9461 54.7578 50.7871 54.9167 50.7871V50.7871Z"
    stroke="#161616"
    stroke-width="2"
    stroke-linecap="round"
    stroke-linejoin="round"
  ></path>
  <path
    d="M20.2539 31.0129H69.4367V61.8601C69.4367 62.9778 68.5306 63.8839 67.4129 63.8839H22.2777C21.16 63.8839 20.2539 62.9778 20.2539 61.8601V31.0129Z"
    stroke="#161616"
    stroke-width="2"
  ></path>
</svg>

<svg width="90" height="90" viewBox="0 0 90 90" fill="none" xmlns="http://www.w3.org/2000/svg"><circle opacity=".5" cx="45" cy="45" r="45" fill="#FFE603"/><path d="M20.254 27.25c0-1.118.906-2.024 2.024-2.024h45.135c1.118 0 2.024.906 2.024 2.024v4.88H20.254v-4.88Z" fill="#FFF281"/><path d="M20.254 27.25c0-1.118.906-2.024 2.024-2.024h45.135c1.118 0 2.024.906 2.024 2.024v4.88H20.254v-4.88Z" stroke="#161616" stroke-width="2"/><path d="M20.254 31.013h49.183V61.86a2.024 2.024 0 0 1-2.024 2.024H22.278a2.024 2.024 0 0 1-2.024-2.024V31.013Z" fill="#FFF281"/><path clip-rule="evenodd" d="M25.602 35.949h38.482c.182 0 .33.09.33.203v9.98c0 .112-.148.204-.33.204H25.602c-.181 0-.329-.092-.329-.204v-9.98c0-.112.148-.203.33-.203v0ZM25.561 50.787h9.21c.158 0 .287.16.287.355v7.452c0 .195-.129.354-.287.354h-9.21c-.159 0-.288-.159-.288-.354v-7.452c0-.196.13-.355.288-.355v0ZM39.884 50.787h9.918c.171 0 .31.16.31.355v7.452c0 .195-.139.354-.31.354h-9.918c-.171 0-.31-.159-.31-.354v-7.452c0-.196.139-.355.31-.355v0ZM54.917 50.787h9.21c.158 0 .287.16.287.355v7.452c0 .195-.129.354-.288.354h-9.21c-.158 0-.287-.159-.287-.354v-7.452c0-.196.129-.355.288-.355v0Z" stroke="#161616" stroke-width="2" stroke-linecap="round" stroke-linejoin="round"/><path d="M20.254 31.013h49.183V61.86a2.024 2.024 0 0 1-2.024 2.024H22.278a2.024 2.024 0 0 1-2.024-2.024V31.013Z" stroke="#161616" stroke-width="2"/></svg>
